;FLAVOR:Marlin
;TIME:15267
;Filament used: 13.1202m
;Layer height: 0.2
;MINX:60.932
;MINY:43.768
;MINZ:0.2
;MAXX:173.394
;MAXY:176.646
;MAXZ:20
;Generated with Cura_SteamEngine 4.8.0
M140 S60
M105
M190 S60
M104 S200
M105
M109 S200
M82 ;absolute extrusion mode
M201 X500.00 Y500.00 Z100.00 E5000.00 ;Setup machine max acceleration
M203 X500.00 Y500.00 Z10.00 E50.00 ;Setup machine max feedrate
M204 P500.00 R1000.00 T500.00 ;Setup Print/Retract/Travel acceleration
M205 X8.00 Y8.00 Z0.40 E5.00 ;Setup Jerk
M220 S100 ;Reset Feedrate
M221 S100 ;Reset Flowrate

G28 ;Home

G92 E0 ;Reset Extruder
G1 Z2.0 F3000 ;Move Z Axis up
G1 X10.1 Y20 Z0.28 F5000.0 ;Move to start position
G1 X10.1 Y200.0 Z0.28 F1500.0 E15 ;Draw the first line
G1 X10.4 Y200.0 Z0.28 F5000.0 ;Move to side a little
G1 X10.4 Y20 Z0.28 F1500.0 E30 ;Draw the second line
G92 E0 ;Reset Extruder
G1 Z2.0 F3000 ;Move Z Axis up

G92 E0
G92 E0
G1 F2700 E-5
;LAYER_COUNT:100
;LAYER:0
M107
;MESH:Buttonx6.stl
G0 F6000 X78.21 Y113.4 Z0.2
;TYPE:WALL-INNER
G1 F2700 E0
G1 F1200 X71.41 Y113.4 E0.22617
G1 X71.41 Y106.6 E0.45234
G1 X78.21 Y106.6 E0.67851
G1 X78.21 Y113.4 E0.90468
G0 F6000 X78.61 Y113.8
;TYPE:WALL-OUTER
G1 F1200 X71.01 Y113.8 E1.15745
G1 X71.01 Y106.2 E1.41023
G1 X78.61 Y106.2 E1.66301
G1 X78.61 Y113.8 E1.91578
G0 F6000 X78.34 Y113.53
G0 X78.1 Y113.01
G0 X77.82 Y113.01
;TYPE:SKIN
G1 F1200 X71.8 Y113.01 E2.11601
G1 X71.8 Y106.99 E2.31624
G1 X77.82 Y106.99 E2.51646
G1 X77.82 Y113.01 E2.71669
G0 F6000 X78.1 Y113.01
G0 X78.1 Y107.641
G0 X77.66 Y107.641
G1 F1200 X77.167 Y107.149 E2.73985
G0 F6000 X76.602 Y107.149
G1 F1200 X77.66 Y108.207 E2.78962
G0 F6000 X77.66 Y108.772
G1 F1200 X76.036 Y107.149 E2.86598
G0 F6000 X75.47 Y107.149
G1 F1200 X77.66 Y109.338 E2.96897
G0 F6000 X77.66 Y109.904
G1 F1200 X74.905 Y107.149 E3.09856
G0 F6000 X74.339 Y107.149
G1 F1200 X77.66 Y110.469 E3.25474
G0 F6000 X77.66 Y111.035
G1 F1200 X73.773 Y107.149 E3.43755
G0 F6000 X73.208 Y107.149
G1 F1200 X77.66 Y111.601 E3.64696
G0 F6000 X77.66 Y112.166
G1 F1200 X72.642 Y107.149 E3.88297
G0 F6000 X72.076 Y107.149
G1 F1200 X77.66 Y112.732 E4.1456
G0 F6000 X77.211 Y112.849
G1 F1200 X71.959 Y107.597 E4.39264
G0 F6000 X71.959 Y108.163
G1 F1200 X76.645 Y112.849 E4.61305
G0 F6000 X76.079 Y112.849
G1 F1200 X71.959 Y108.728 E4.80687
G0 F6000 X71.959 Y109.294
G1 F1200 X75.514 Y112.849 E4.97408
G0 F6000 X74.948 Y112.849
G1 F1200 X71.959 Y109.86 E5.11468
G0 F6000 X71.959 Y110.426
G1 F1200 X74.382 Y112.849 E5.22865
G0 F6000 X73.816 Y112.849
G1 F1200 X71.959 Y110.991 E5.31602
G0 F6000 X71.959 Y111.557
G1 F1200 X73.251 Y112.849 E5.37679
G0 F6000 X72.685 Y112.849
G1 F1200 X71.959 Y112.123 E5.41094
G0 F6000 X71.959 Y112.688
G1 F1200 X72.119 Y112.849 E5.41849
G0 F6000 X72.119 Y113.2
G1 F2700 E0.41849
;MESH:Buttonx6.stl(5)
G0 F6000 X72.119 Y113.29
G0 X78.028 Y113.218
G0 X78.39 Y112.569
G0 X79.475 Y112.569
G0 X83.645 Y112.569
G0 X84.73 Y112.569
G0 X91.71 Y112.569
;TYPE:WALL-INNER
G1 F2700 E5.41849
G1 F1200 X84.91 Y112.569 E5.64466
G1 X84.91 Y105.769 E5.87083
G1 X91.71 Y105.769 E6.097
G1 X91.71 Y112.569 E6.32317
G0 F6000 X92.11 Y112.969
;TYPE:WALL-OUTER
G1 F1200 X84.51 Y112.969 E6.57594
G1 X84.51 Y105.369 E6.82872
G1 X92.11 Y105.369 E7.0815
G1 X92.11 Y112.969 E7.33427
G0 F6000 X91.84 Y112.699
G0 X91.6 Y112.179
G0 X91.32 Y112.179
;TYPE:SKIN
G1 F1200 X85.3 Y112.179 E7.5345
G1 X85.3 Y106.159 E7.73473
G1 X91.32 Y106.159 E7.93495
G1 X91.32 Y112.179 E8.13518
G0 F6000 X91.6 Y112.179
G0 X91.6 Y106.433
G0 X91.16 Y106.433
G1 F1200 X91.044 Y106.318 E8.14061
G0 F6000 X90.479 Y106.318
G1 F1200 X91.16 Y106.999 E8.17264
G0 F6000 X91.16 Y107.565
G1 F1200 X89.913 Y106.318 E8.2313
G0 F6000 X89.347 Y106.318
G1 F1200 X91.16 Y108.13 E8.31655
G0 F6000 X91.16 Y108.696
G1 F1200 X88.782 Y106.318 E8.42841
G0 F6000 X88.216 Y106.318
G1 F1200 X91.16 Y109.262 E8.56688
G0 F6000 X91.16 Y109.827
G1 F1200 X87.65 Y106.318 E8.73196
G0 F6000 X87.085 Y106.318
G1 F1200 X91.16 Y110.393 E8.92363
G0 F6000 X91.16 Y110.959
G1 F1200 X86.519 Y106.318 E9.14193
G0 F6000 X85.953 Y106.318
G1 F1200 X91.16 Y111.524 E9.38683
G0 F6000 X91.088 Y112.018
G1 F1200 X85.459 Y106.389 E9.6516
G0 F6000 X85.459 Y106.955
G1 F1200 X90.522 Y112.018 E9.88975
G0 F6000 X89.956 Y112.018
G1 F1200 X85.459 Y107.521 E10.10127
G0 F6000 X85.459 Y108.086
G1 F1200 X89.391 Y112.018 E10.28622
G0 F6000 X88.825 Y112.018
G1 F1200 X85.459 Y108.652 E10.44455
G0 F6000 X85.459 Y109.218
G1 F1200 X88.259 Y112.018 E10.57625
G0 F6000 X87.693 Y112.018
G1 F1200 X85.459 Y109.783 E10.68136
G0 F6000 X85.459 Y110.349
G1 F1200 X87.128 Y112.018 E10.75986
G0 F6000 X86.562 Y112.018
G1 F1200 X85.459 Y110.915 E10.81174
G0 F6000 X85.459 Y111.481
G1 F1200 X85.996 Y112.018 E10.837
G0 F6000 X85.996 Y112.369
G1 F2700 E5.837
;MESH:Buttonx6.stl(4)
G0 F6000 X85.996 Y112.459
G0 X91.896 Y112.755
G0 X92.975 Y112.755
G0 X98.633 Y112.755
G0 X99.718 Y112.755
G0 X100.01 Y112.818
G0 X106.698 Y113.016
;TYPE:WALL-INNER
G1 F2700 E10.837
G1 F1200 X99.898 Y113.016 E11.06317
G1 X99.898 Y106.216 E11.28934
G1 X106.698 Y106.216 E11.51551
G1 X106.698 Y113.016 E11.74168
G0 F6000 X107.098 Y113.416
;TYPE:WALL-OUTER
G1 F1200 X99.498 Y113.416 E11.99445
G1 X99.498 Y105.816 E12.24723
G1 X107.098 Y105.816 E12.50001
G1 X107.098 Y113.416 E12.75279
G0 F6000 X106.828 Y113.146
G0 X106.588 Y112.626
G0 X106.308 Y112.626
;TYPE:SKIN
G1 F1200 X100.288 Y112.626 E12.95301
G1 X100.288 Y106.606 E13.15324
G1 X106.308 Y106.606 E13.35346
G1 X106.308 Y112.626 E13.55369
G0 F6000 X106.588 Y112.626
G0 X106.588 Y107.279
G0 X106.148 Y107.279
G1 F1200 X105.633 Y106.765 E13.57789
G0 F6000 X105.068 Y106.765
G1 F1200 X106.148 Y107.845 E13.62869
G0 F6000 X106.148 Y108.41
G1 F1200 X104.502 Y106.765 E13.70609
G0 F6000 X103.936 Y106.765
G1 F1200 X106.148 Y108.976 E13.81011
G0 F6000 X106.148 Y109.542
G1 F1200 X103.371 Y106.765 E13.94073
G0 F6000 X102.805 Y106.765
G1 F1200 X106.148 Y110.107 E14.09795
G0 F6000 X106.148 Y110.673
G1 F1200 X102.239 Y106.765 E14.2818
G0 F6000 X101.674 Y106.765
G1 F1200 X106.148 Y111.239 E14.49224
G0 F6000 X106.148 Y111.804
G1 F1200 X101.108 Y106.765 E14.72928
G0 F6000 X100.542 Y106.765
G1 F1200 X106.148 Y112.37 E14.99295
G0 F6000 X105.677 Y112.465
G1 F1200 X100.447 Y107.235 E15.23895
G0 F6000 X100.447 Y107.801
G1 F1200 X105.111 Y112.465 E15.45833
G0 F6000 X104.545 Y112.465
G1 F1200 X100.447 Y108.366 E15.65111
G0 F6000 X100.447 Y108.932
G1 F1200 X103.98 Y112.465 E15.8173
G0 F6000 X103.414 Y112.465
G1 F1200 X100.447 Y109.498 E15.95685
G0 F6000 X100.447 Y110.063
G1 F1200 X102.848 Y112.465 E16.06981
G0 F6000 X102.282 Y112.465
G1 F1200 X100.447 Y110.629 E16.15615
G0 F6000 X100.447 Y111.195
G1 F1200 X101.717 Y112.465 E16.21589
G0 F6000 X101.151 Y112.465
G1 F1200 X100.447 Y111.761 E16.249
G0 F6000 X100.447 Y112.326
G1 F1200 X100.585 Y112.465 E16.25552
G0 F6000 X100.585 Y112.816
G1 F2700 E11.25552
;MESH:Buttonx6.stl(2)
G0 F6000 X100.585 Y112.906
G0 X106.884 Y113.202
G0 X107.963 Y113.202
G0 X116.341 Y113.202
G0 X117.426 Y113.202
G0 X117.606 Y113.503
;TYPE:WALL-INNER
G1 F2700 E16.25552
G1 F1200 X117.606 Y106.703 E16.48168
G1 X124.406 Y106.703 E16.70785
G1 X124.406 Y113.503 E16.93402
G1 X117.606 Y113.503 E17.16019
G0 F6000 X117.206 Y113.903
;TYPE:WALL-OUTER
G1 F1200 X117.206 Y106.303 E17.41297
G1 X124.806 Y106.303 E17.66574
G1 X124.806 Y113.903 E17.91852
G1 X117.206 Y113.903 E18.1713
G0 F6000 X117.476 Y113.633
G0 X117.716 Y113.113
G0 X117.996 Y113.113
;TYPE:SKIN
G1 F1200 X117.996 Y107.093 E18.37152
G1 X124.016 Y107.093 E18.57175
G1 X124.016 Y113.113 E18.77198
G1 X117.996 Y113.113 E18.9722
G0 F6000 X118.609 Y112.952
G1 F1200 X118.155 Y112.498 E18.99356
G0 F6000 X118.155 Y111.932
G1 F1200 X119.175 Y112.952 E19.04154
G0 F6000 X119.74 Y112.952
G1 F1200 X118.155 Y111.367 E19.11609
G0 F6000 X118.155 Y110.801
G1 F1200 X120.306 Y112.952 E19.21727
G0 F6000 X120.872 Y112.952
G1 F1200 X118.155 Y110.235 E19.34506
G0 F6000 X118.155 Y109.67
G1 F1200 X121.437 Y112.952 E19.49944
G0 F6000 X122.003 Y112.952
G1 F1200 X118.155 Y109.104 E19.68044
G0 F6000 X118.155 Y108.538
G1 F1200 X122.569 Y112.952 E19.88806
G0 F6000 X123.134 Y112.952
G1 F1200 X118.155 Y107.973 E20.12226
G0 F6000 X118.155 Y107.407
G1 F1200 X123.7 Y112.952 E20.38308
G0 F6000 X123.855 Y112.541
G1 F1200 X118.566 Y107.253 E20.63183
G0 F6000 X119.132 Y107.253
G1 F1200 X123.855 Y111.976 E20.85399
G0 F6000 X123.855 Y111.41
G1 F1200 X119.698 Y107.253 E21.04952
G0 F6000 X120.264 Y107.253
G1 F1200 X123.855 Y110.844 E21.21843
G0 F6000 X123.855 Y110.278
G1 F1200 X120.829 Y107.253 E21.36074
G0 F6000 X121.395 Y107.253
G1 F1200 X123.855 Y109.713 E21.47645
G0 F6000 X123.855 Y109.147
G1 F1200 X121.961 Y107.253 E21.56554
G0 F6000 X122.526 Y107.253
G1 F1200 X123.855 Y108.581 E21.62803
G0 F6000 X123.855 Y108.016
G1 F1200 X123.092 Y107.253 E21.66392
G0 F6000 X123.658 Y107.253
G1 F1200 X123.855 Y107.45 E21.67318
G0 F6000 X124.206 Y107.45
G1 F2700 E16.67318
;MESH:Buttonx6.stl(1)
G0 F6000 X124.296 Y107.45
G0 X124.592 Y113.689
G0 X125.671 Y113.689
G0 X135.087 Y113.689
G0 X136.172 Y113.689
G0 X136.352 Y113.744
;TYPE:WALL-INNER
G1 F2700 E21.67318
G1 F1200 X136.352 Y106.944 E21.89935
G1 X143.152 Y106.944 E22.12552
G1 X143.152 Y113.744 E22.35169
G1 X136.352 Y113.744 E22.57786
G0 F6000 X135.952 Y114.144
;TYPE:WALL-OUTER
G1 F1200 X135.952 Y106.544 E22.83063
G1 X143.552 Y106.544 E23.08341
G1 X143.552 Y114.144 E23.33619
G1 X135.952 Y114.144 E23.58897
G0 F6000 X136.222 Y113.874
G0 X136.462 Y113.354
G0 X136.742 Y113.354
;TYPE:SKIN
G1 F1200 X136.742 Y107.334 E23.78919
G1 X142.762 Y107.334 E23.98942
G1 X142.762 Y113.354 E24.18964
G1 X136.742 Y113.354 E24.38987
G0 F6000 X137.518 Y113.193
G1 F1200 X136.901 Y112.577 E24.41887
G0 F6000 X136.901 Y112.011
G1 F1200 X138.083 Y113.193 E24.47447
G0 F6000 X138.649 Y113.193
G1 F1200 X136.901 Y111.445 E24.55669
G0 F6000 X136.901 Y110.88
G1 F1200 X139.215 Y113.193 E24.66551
G0 F6000 X139.78 Y113.193
G1 F1200 X136.901 Y110.314 E24.80092
G0 F6000 X136.901 Y109.748
G1 F1200 X140.346 Y113.193 E24.96297
G0 F6000 X140.912 Y113.193
G1 F1200 X136.901 Y109.182 E25.15163
G0 F6000 X136.901 Y108.617
G1 F1200 X141.477 Y113.193 E25.36687
G0 F6000 X142.043 Y113.193
G1 F1200 X136.901 Y108.051 E25.60874
G0 F6000 X136.91 Y107.494
G1 F1200 X142.601 Y113.185 E25.87642
G0 F6000 X142.601 Y112.62
G1 F1200 X137.475 Y107.494 E26.11754
G0 F6000 X138.041 Y107.494
G1 F1200 X142.601 Y112.054 E26.33202
G0 F6000 X142.601 Y111.488
G1 F1200 X138.607 Y107.494 E26.51989
G0 F6000 X139.172 Y107.494
G1 F1200 X142.601 Y110.923 E26.68118
G0 F6000 X142.601 Y110.357
G1 F1200 X139.738 Y107.494 E26.81585
G0 F6000 X140.304 Y107.494
G1 F1200 X142.601 Y109.791 E26.92389
G0 F6000 X142.601 Y109.226
G1 F1200 X140.869 Y107.494 E27.00536
G0 F6000 X141.435 Y107.494
G1 F1200 X142.601 Y108.66 E27.0602
G0 F6000 X142.601 Y108.094
G1 F1200 X142.001 Y107.494 E27.08843
G0 F6000 X142.001 Y107.144
G1 F2700 E22.08843
;MESH:Buttonx6.stl(3)
G0 F6000 X142.001 Y107.054
G0 X142.97 Y107.126
G0 X143.332 Y113.672
G0 X144.417 Y113.672
G0 X151.481 Y113.672
G0 X152.566 Y113.672
G0 X152.746 Y113.672
;TYPE:WALL-INNER
G1 F2700 E27.08843
G1 F1200 X152.746 Y106.872 E27.31459
G1 X159.546 Y106.872 E27.54076
G1 X159.546 Y113.672 E27.76693
G1 X152.746 Y113.672 E27.9931
G0 F6000 X152.346 Y114.072
;TYPE:WALL-OUTER
G1 F1200 X152.346 Y106.472 E28.24588
G1 X159.946 Y106.472 E28.49865
G1 X159.946 Y114.072 E28.75143
G1 X152.346 Y114.072 E29.00421
G0 F6000 X152.616 Y113.802
G0 X152.856 Y113.282
G0 X153.136 Y113.282
;TYPE:SKIN
G1 F1200 X153.136 Y107.262 E29.20443
G1 X159.156 Y107.262 E29.40466
G1 X159.156 Y113.282 E29.60489
G1 X153.136 Y113.282 E29.80511
G0 F6000 X153.85 Y113.121
G1 F1200 X153.295 Y112.565 E29.83124
G0 F6000 X153.295 Y112
G1 F1200 X154.416 Y113.121 E29.88397
G0 F6000 X154.982 Y113.121
G1 F1200 X153.295 Y111.434 E29.96332
G0 F6000 X153.295 Y110.868
G1 F1200 X155.547 Y113.121 E30.06927
G0 F6000 X156.113 Y113.121
G1 F1200 X153.295 Y110.303 E30.20182
G0 F6000 X153.295 Y109.737
G1 F1200 X156.679 Y113.121 E30.361
G0 F6000 X157.244 Y113.121
G1 F1200 X153.295 Y109.171 E30.54677
G0 F6000 X153.295 Y108.605
G1 F1200 X157.81 Y113.121 E30.75916
G0 F6000 X158.376 Y113.121
G1 F1200 X153.295 Y108.04 E30.99816
G0 F6000 X153.295 Y107.474
G1 F1200 X158.942 Y113.121 E31.26378
G0 F6000 X158.995 Y112.608
G1 F1200 X153.808 Y107.422 E31.50773
G0 F6000 X154.374 Y107.422
G1 F1200 X158.995 Y112.043 E31.72509
G0 F6000 X158.995 Y111.477
G1 F1200 X154.939 Y107.422 E31.91585
G0 F6000 X155.505 Y107.422
G1 F1200 X158.995 Y110.911 E32.07998
G0 F6000 X158.995 Y110.346
G1 F1200 X156.071 Y107.422 E32.21752
G0 F6000 X156.636 Y107.422
G1 F1200 X158.995 Y109.78 E32.32846
G0 F6000 X158.995 Y109.214
G1 F1200 X157.202 Y107.422 E32.41277
G0 F6000 X157.768 Y107.422
G1 F1200 X158.995 Y108.649 E32.47048
G0 F6000 X158.995 Y108.083
G1 F1200 X158.333 Y107.422 E32.5016
G0 F6000 X158.899 Y107.422
G1 F1200 X158.995 Y107.517 E32.50609
G0 F6000 X159.346 Y107.517
G1 F2700 E27.50609
;MESH:Base.stl
G0 F6000 X159.436 Y107.517
G0 X159.364 Y113.49
G0 X152.56 Y113.858
G0 X152.56 Y114.937
G0 X152.56 Y122.327
G0 X152.56 Y123.412
G0 X67.426 Y123.441
G0 X64.7 Y121.561
G0 X64.313 Y121.366
G0 X63.905 Y121.278
G0 X63.461 Y121.291
G0 X63.059 Y121.41
G0 X62.69 Y121.627
G0 X62.384 Y121.932
G0 X62.161 Y122.304
G0 X62.039 Y122.717
G0 X62.025 Y123.144
G0 X62.116 Y123.565
G0 X64.201 Y127.21
G0 X64.34 Y172.892
;TYPE:WALL-INNER
G1 F2700 E32.50609
G1 F1200 X64.34 Y128.557 E33.98068
G1 X64.264 Y127.644 E34.01115
G1 X64.025 Y126.724 E34.04277
G1 X63.64 Y125.865 E34.07407
G1 X63.121 Y125.091 E34.10507
G1 X62.511 Y124.445 E34.13462
G1 X62.165 Y124.044 E34.15224
G1 X61.954 Y123.624 E34.16787
G1 X61.853 Y123.159 E34.1837
G1 X61.869 Y122.692 E34.19924
G1 X62.004 Y122.234 E34.21512
G1 X62.249 Y121.825 E34.23098
G1 X62.585 Y121.49 E34.24676
G1 X62.987 Y121.253 E34.26228
G1 X63.436 Y121.121 E34.27784
G1 X63.919 Y121.106 E34.29392
G1 X64.372 Y121.204 E34.30933
G1 X64.795 Y121.417 E34.32508
G1 X65.216 Y121.784 E34.34366
G1 X65.839 Y122.373 E34.37218
G1 X66.629 Y122.9 E34.40376
G1 X67.482 Y123.279 E34.43481
G1 X68.391 Y123.515 E34.46604
G1 X69.305 Y123.592 E34.49655
G1 X169.64 Y123.592 E37.83371
G1 X169.64 Y167.936 E39.30859
G1 X169.719 Y168.849 E39.33907
G1 X169.955 Y169.758 E39.37031
G1 X170.34 Y170.617 E39.40162
G1 X170.859 Y171.394 E39.4327
G1 X171.457 Y172.025 E39.46161
G1 X171.815 Y172.439 E39.47981
G1 X172.027 Y172.862 E39.49555
G1 X172.127 Y173.324 E39.51127
G1 X172.111 Y173.792 E39.52685
G1 X171.975 Y174.254 E39.54287
G1 X171.736 Y174.654 E39.55836
G1 X171.396 Y174.992 E39.57431
G1 X170.991 Y175.232 E39.58997
G1 X170.544 Y175.363 E39.60546
G1 X170.063 Y175.378 E39.62147
G1 X169.609 Y175.279 E39.63692
G1 X169.183 Y175.065 E39.65278
G1 X168.766 Y174.7 E39.67121
G1 X168.141 Y174.111 E39.69977
G1 X167.351 Y173.584 E39.73136
G1 X166.5 Y173.204 E39.76236
G1 X165.588 Y172.968 E39.79369
G1 X164.675 Y172.892 E39.82416
G1 X64.34 Y172.892 E43.16132
G0 F6000 X63.94 Y173.292
;TYPE:WALL-OUTER
G1 F1200 X63.94 Y128.574 E44.64864
G1 X63.868 Y127.711 E44.67745
G1 X63.646 Y126.857 E44.70679
G1 X63.289 Y126.06 E44.73584
G1 X62.807 Y125.341 E44.76463
G1 X62.22 Y124.72 E44.79305
G1 X61.83 Y124.268 E44.81291
G1 X61.573 Y123.757 E44.83193
G1 X61.451 Y123.195 E44.85106
G1 X61.471 Y122.627 E44.86996
G1 X61.635 Y122.072 E44.88921
G1 X61.93 Y121.577 E44.90838
G1 X62.336 Y121.173 E44.92743
G1 X62.829 Y120.882 E44.94647
G1 X63.373 Y120.723 E44.96532
G1 X63.955 Y120.704 E44.98469
G1 X64.505 Y120.824 E45.00341
G1 X65.022 Y121.084 E45.02266
G1 X65.479 Y121.482 E45.04281
G1 X66.089 Y122.059 E45.07074
G1 X66.823 Y122.548 E45.10008
